icons/line/desktop-computer.svg

<svg width="24" height="24" viewBox="0 0 24 24" fill="none" xmlns="http://www.w3.org/2000/svg">
<path d="M10 16H5C3.89543 16 3 15.1046 3 14V6C3 4.89543 3.89543 4 5 4H19C20.1046 4 21 4.89543 21 6V14C21 15.1046 20.1046 16 19 16H14M10 16V20M10 16H12H14M10 20H8M10 20H12H14M16 20H14M14 16V20" stroke="currentColor" stroke-width="2" stroke-linecap="round" stroke-linejoin="round"/>
</svg>

<svg width="24" height="24" fill="none" xmlns="http://www.w3.org/2000/svg"><path d="M10 16H5a2 2 0 01-2-2V6a2 2 0 012-2h14a2 2 0 012 2v8a2 2 0 01-2 2h-5m-4 0v4m0-4h4m-4 4H8m2 0h4m2 0h-2m0-4v4" stroke="currentColor" stroke-width="2" stroke-linecap="round" stroke-linejoin="round"/></svg>
